X:2990
T:Chips and Shavins
M:2/2
L:1/8
S:Armitt MS
N:The last bar, and the last half of the preceding bar are shown on line
N:three  of page A
K:D major
c|dAFA G2 (FE)|DFAF GEEc|dAFA G2 (FE)|DBAG FDD:||:f|dfaf g2 fe|dfaf geef
|dfaf g2 (fe)|dBAG FDDf|dfaf g2 fe|dfaf geef/2a/2|afge fdec|dBAG FDD:||


